X:1
T:No7. Es ist vollbracht!
L:1/8
Q:1/4=52
M:2/2
K:Bb
V:1 bass nm="Piano" snm="Pno."
V:1
"^Lento" G,4 E,4 | C,4 D,4 | !fermata!G,,8 | z8 |!p! D4 B,4 | (^F,4 G,4) | D,8- | %7
 D,C,-E,D, (C,B,,A,,G,,) | D,,2 z2 D,,2 z2 | D,,2 z2 D,,2 z2 |!f! (D,A,B,^F,) (G,D,_E,^C,) | %11
 D,2 z2!ff! D,2 D,2 | !fermata!D,8 |!p! (B,4 G,4) | (E,4 F,4) | (B,,4 G,,4) | (E,,4 F,,4) | %17
!f! B,,2 z2!p! B,2 z2 | F,2 z2 A,2 z2 | B,2 z2 B,,2 z2 | F,2 z2 A,2 z2 | %21
 z (.B,.B,.B,) z (.B,.B,.B,) | z B,B,B, z A,A,A, | z A,A,A, z EEE | z EEE z _DDD | %25
!ff! !wedge!_D!wedge!D!wedge!D!wedge!D !wedge!B,!wedge!B,!wedge!B,!wedge!B, | %26
!ff! !wedge!_G,!wedge!G,!wedge!G,!wedge!G, !wedge!_D,!wedge!D,!wedge!D,!wedge!D, | %27
!p! (.B,,.B,,.B,,.B,,) (.B,,.B,,.B,,.B,,) | (._C,.C,.=C,.C,) (._D,.D,.=D,.D,) | %29
 (.E,.E,.E,.E,) (.=E,.E,.E,.E,) | F,2 z2 F,2 z2 | F,2 z2 F,2 z2 | (G,4 E,4) | F,2 z2 z4 | %34
 !wedge!F,2 z2 !wedge!F,2 z2 |!pp! (B,4 G,4) | (E,4 F,4) | B,,B,,B,,B,, B,,B,,B,,B,, | %38
 B,,B,,B,,B,, B,,B,,B,,D, | B,,2 z2 B,,2 B,,2 | B,,2 z2 z4 :|!p! B,,4 z4 | B,,4 z4 | B,,4 z4 | %44
 !fermata!B,,8 |!f! E,2 z2!p! E,2 z2 | B,2 z2 D,2 z2 | E,2 z2 G,2 z2 | B,2 z2 _D,4 | C,4 =E,4 | %50
!ff! F,F, F,=E,/F,/ _A,A, A,G,/A,/ | B,2 z2 z4 | E,E, E,=D,/E,/ G,G, G,F,/G,/ | %53
 _A,A, A,G,/A,/ CC CB,/C/ | EE,E=E FF,F=D | =B,=A,/B,/ CC, F,F,^F,F, | (G,4 E,4) | (C,4 F,4) | %58
 =B,,4 z4 | C4 _A,4 | F,4 G,4 | =E,4 z4 | F,4 _E,4 | (=D,8 | (D,8) | (D,8) | %66
 D,)(C,E,D,) (C,B,,A,,G,,) | D,,2 z2 D,,2 z2 | D,,2 z2 D,,2 z2 |!f! (D,A,B,^F,) (G,D,_E,^C,) | %70
 D,2 z2 D,2 D,2 | !fermata!D,8 ||[K:G]!p! (G,4 E,4) | (C,4 D,4) | (G,4 E,4) | (C,4 D,4) | %76
!f! G,,2 z2!p! G,2 z2 | D,2 z2 F,2 z2 | G,2 z2 G,,2 z2 | D,2 z2 F,2 z2 | %80
 z (.G,.G,.G,) z (.G,.G,.G,) | z (.G,.G,.G,) z F,F,F, | z F,F,F, z CCC | z CCC z _B,B,B, | %84
!f! !wedge!_B,!wedge!B,!wedge!B,!wedge!B, !wedge!G,!wedge!G,!wedge!G,!wedge!G, | %85
 !wedge!_E,!wedge!E,!wedge!E,!wedge!E, !wedge!_B,,!wedge!B,,!wedge!B,,!wedge!B,, | %86
!p! (.G,,.G,,.G,,.G,,) (.G,,.G,,.G,,.G,,) | (._A,,.A,,.=A,,.A,,) (._B,,.B,,.=B,,.B,,) | %88
 (.C,.C,.C,.C,) (.^C,.C,.C,.C,) | D,2 z2 D,2 z2 | D,2 z2 D,2 z2 | (E,4 C,4) | D,2 z2 z4 | %93
 !wedge!D,2 z2 !wedge!D,2 z2 |!pp! (G,4 E,4) | (C,4 F,4) | %96
 !wedge!G,/!wedge!G,/!wedge!G,/!wedge!G,/ !wedge!G,/!wedge!G,/!wedge!G,/!wedge!G,/ E,/E,/E,/E,/ E,/E,/E,/E,/ | %97
 C,/C,/C,/C,/ C,/C,/C,/C,/ D,/D,/D,/D,/ D,/D,/D,/D,/ | G,2 z2!p! D,2 z2 | G,2 z2 D,2 z2 | %100
 G,2 z2 G,,2 G,,2 | G,,2 z2 z4 |] %102

